public/assets/images/testimonials/15.svg

<svg width="152" height="37" viewBox="0 0 152 37" fill="none" xmlns="http://www.w3.org/2000/svg">
<g clip-path="url(#clip0_938_15340)">
<path d="M133.517 12.6212C134.361 12.6212 135.058 12.1848 135.156 11.6192L135.991 2.19697C135.991 1.26768 134.896 0.5 133.517 0.5C132.139 0.5 131.052 1.26768 131.052 2.19697L131.887 11.6192C131.977 12.1768 132.674 12.6212 133.517 12.6212ZM128.408 15.5626C128.83 14.8354 128.798 14.0111 128.351 13.6475L120.582 8.21717C119.771 7.74848 118.563 8.31414 117.874 9.50202C117.184 10.6899 117.306 12.0152 118.109 12.4758L126.713 16.4677C127.257 16.6697 127.987 16.2818 128.408 15.5626ZM138.626 15.5545C139.048 16.2818 139.778 16.6697 140.321 16.4677L148.926 12.4758C149.737 12.0071 149.85 10.6818 149.169 9.50202C148.48 8.31414 147.263 7.75657 146.46 8.21717L138.691 13.6475C138.245 14.0111 138.213 14.8354 138.626 15.5545ZM133.517 24.3869C134.361 24.3869 135.058 24.8232 135.156 25.3889L135.991 34.803C135.991 35.7404 134.896 36.5 133.517 36.5C132.139 36.5 131.052 35.7404 131.052 34.803L131.887 25.3889C131.977 24.8232 132.674 24.3869 133.517 24.3869ZM138.626 21.4455C139.048 20.7182 139.778 20.3384 140.321 20.5323L148.926 24.5242C149.737 24.9929 149.85 26.3182 149.169 27.5061C148.48 28.6859 147.263 29.2515 146.46 28.7909L138.691 23.3687C138.245 22.9889 138.213 22.1727 138.626 21.4455ZM128.408 21.4374C128.83 22.1646 128.798 22.9889 128.351 23.3525L120.582 28.7747C119.771 29.2434 118.563 28.6778 117.874 27.4899C117.184 26.302 117.306 24.9768 118.109 24.5081L126.713 20.5162C127.257 20.3303 127.987 20.7101 128.408 21.4374Z" fill="#0F62FE"/>
<path d="M84.5111 23.3358C84.5111 23.6267 84.4868 23.9257 84.4057 24.1843C84.0732 25.2752 82.946 26.1883 81.5349 26.1883C80.359 26.1883 79.4182 25.5176 79.4182 24.1115C79.4182 21.9539 81.8025 21.356 84.5111 21.3721V23.3358ZM88.7606 19.5782C88.7606 16.0226 87.236 12.8954 82.0863 12.8954C79.4426 12.8954 77.3421 13.6388 76.1987 14.2933L77.034 17.1539C78.0801 16.4913 79.7507 15.9499 81.3321 15.9499C83.9434 15.9418 84.3733 17.4287 84.3733 18.3741V18.6004C78.6803 18.5923 75.0714 20.556 75.0714 24.564C75.0714 27.0125 76.9042 29.2994 80.0913 29.2994C82.0539 29.2994 83.692 28.5236 84.6733 27.2711H84.7706C84.7706 27.2711 85.4194 29.9863 89.0039 28.9438C88.8174 27.8125 88.7525 26.6085 88.7525 25.162L88.7606 19.5782ZM0 8.05496C0 8.05496 3.72235 23.255 4.31436 25.7196C5.01179 28.5964 6.26068 29.663 9.86139 28.9438L12.1889 19.5216C12.7809 17.1782 13.1701 15.5135 13.5513 13.1297H13.6162C13.8838 15.5378 14.265 17.1863 14.7434 19.5297C14.7434 19.5297 15.6923 23.8045 16.1707 26.0509C16.6573 28.2974 18.0116 29.7115 21.5393 28.9438L27.0783 8.05496H22.6098L20.7203 17.0893C20.2094 19.7156 19.7471 21.7762 19.3984 24.1762H19.3335C19.0091 21.7923 18.5955 19.8206 18.0846 17.259L16.114 8.05496H11.459L9.35048 17.0247C8.75036 19.756 8.1989 21.9539 7.84207 24.2731H7.7772C7.41226 22.0832 6.92568 19.3196 6.40666 16.6772C6.40666 16.6772 5.15777 10.261 4.71984 8.04688L0 8.05496ZM35.5367 23.3358C35.5367 23.6267 35.5123 23.9257 35.4313 24.1843C35.0988 25.2752 33.9715 26.1883 32.5604 26.1883C31.3845 26.1883 30.4438 25.5176 30.4438 24.1115C30.4438 21.9539 32.828 21.356 35.5367 21.3721V23.3358ZM39.7943 19.5782C39.7943 16.0226 38.2696 12.8954 33.12 12.8954C30.4762 12.8954 28.3758 13.6388 27.2324 14.2933L28.0677 17.1539C29.1138 16.4913 30.7844 15.9499 32.3658 15.9499C34.9852 15.9418 35.4069 17.4287 35.4069 18.3741V18.6004C29.7058 18.5923 26.1051 20.556 26.1051 24.564C26.1051 27.0125 27.9379 29.2994 31.125 29.2994C33.0876 29.2994 34.7257 28.5236 35.707 27.2711H35.8043C35.8043 27.2711 36.4531 29.9863 40.0457 28.9438C39.8591 27.8125 39.7943 26.6085 39.7943 25.162V19.5782ZM46.8903 24.5075V8.05496H42.6327V28.9438H46.8903V24.5075ZM102.596 8.05496V23.4651C102.596 25.5903 103.001 27.0772 103.853 27.9903C104.607 28.7903 105.84 29.2994 107.316 29.2994C108.573 29.2994 109.813 29.057 110.397 28.8469L110.34 25.5337C109.903 25.6388 109.408 25.7277 108.727 25.7277C107.275 25.7277 106.788 24.7984 106.788 22.8913V16.9923H110.495V12.9923H106.788V8.05496H102.596ZM91.599 13.2509V28.9438H95.9944V20.9115C95.9944 20.4752 96.0188 20.0954 96.0918 19.756C96.4162 18.0752 97.7056 17.0004 99.5627 17.0004C100.074 17.0004 100.439 17.057 100.828 17.1135V13.0085C100.495 12.9438 100.268 12.9115 99.8628 12.9115C98.2246 12.9115 96.3594 13.962 95.5727 16.2247H95.4511V13.2671H91.599M49.8665 13.2509V28.9438H54.1484V19.7398C54.1484 19.3115 54.1971 18.8509 54.3512 18.455C54.708 17.5257 55.5676 16.4428 56.9544 16.4428C58.6817 16.4428 59.4927 17.8974 59.4927 19.9984V28.9438H63.7665V19.6267C63.7665 19.2146 63.8233 18.7216 63.9449 18.358C64.2937 17.3075 65.2263 16.4428 66.5157 16.4428C68.2674 16.4428 69.1027 17.8731 69.1027 20.3459V28.9438H73.3846V19.6994C73.3846 14.8267 70.9031 12.8954 68.0971 12.8954C66.8563 12.8954 65.875 13.2024 64.9911 13.7438C64.245 14.2045 63.58 14.8509 62.9961 15.6994H62.9312C62.2581 14.0105 60.6605 12.8954 58.5925 12.8954C55.9326 12.8954 54.7323 14.2368 54.0025 15.3842H53.9295V13.2509H49.8665Z" fill="#0F62FE"/>
</g>
<defs>
<clipPath id="clip0_938_15340">
<rect width="152" height="36" fill="white" transform="translate(0 0.5)"/>
</clipPath>
</defs>
</svg>

<svg xmlns="http://www.w3.org/2000/svg" width="152" height="37" fill="none" viewBox="0 0 152 37"><g fill="#0f62fe" clip-path="url(#a)"><path d="M133.517 12.621c.844 0 1.541-.436 1.639-1.002l.835-9.422c0-.93-1.095-1.697-2.474-1.697-1.378 0-2.465.768-2.465 1.697l.835 9.422c.09.558.787 1.002 1.63 1.002m-5.109 2.942c.422-.728.39-1.552-.057-1.915l-7.769-5.43c-.811-.47-2.019.096-2.708 1.284s-.568 2.513.235 2.974l8.604 3.992c.544.202 1.274-.186 1.695-.905m10.218-.008c.422.727 1.152 1.115 1.695.913l8.605-3.992c.811-.469.924-1.794.243-2.974-.689-1.188-1.906-1.745-2.709-1.285l-7.769 5.43c-.446.364-.478 1.188-.065 1.908m-5.109 8.832c.844 0 1.541.436 1.639 1.002l.835 9.414c0 .937-1.095 1.697-2.474 1.697-1.378 0-2.465-.76-2.465-1.697l.835-9.414c.09-.566.787-1.002 1.63-1.002m5.109-2.942c.422-.727 1.152-1.107 1.695-.913l8.605 3.992c.811.469.924 1.794.243 2.982-.689 1.18-1.906 1.745-2.709 1.285l-7.769-5.422c-.446-.38-.478-1.196-.065-1.924m-10.218-.008c.422.728.39 1.552-.057 1.915l-7.769 5.423c-.811.468-2.019-.097-2.708-1.285s-.568-2.513.235-2.982l8.604-3.992c.544-.186 1.274.194 1.695.921m-43.897 1.899c0 .29-.024.59-.105.848-.333 1.091-1.46 2.004-2.871 2.004-1.176 0-2.117-.67-2.117-2.076 0-2.158 2.384-2.756 5.093-2.74zm4.25-3.758c0-3.555-1.525-6.683-6.675-6.683-2.643 0-4.744.744-5.887 1.398l.835 2.86c1.046-.662 2.717-1.203 4.298-1.203 2.611-.008 3.041 1.479 3.041 2.424v.226c-5.693-.008-9.302 1.956-9.302 5.964 0 2.448 1.833 4.735 5.02 4.735 1.963 0 3.601-.775 4.582-2.028h.098s.648 2.715 4.233 1.673c-.187-1.131-.252-2.335-.252-3.782zM0 8.055s3.722 15.2 4.314 17.665c.698 2.876 1.947 3.943 5.547 3.224l2.328-9.422c.592-2.344.981-4.008 1.362-6.392h.065c.268 2.408.649 4.056 1.127 6.4 0 0 .95 4.275 1.428 6.52.486 2.247 1.84 3.662 5.368 2.894l5.54-20.889h-4.47l-1.889 9.034c-.51 2.627-.973 4.687-1.322 7.087h-.064c-.325-2.384-.738-4.355-1.25-6.917l-1.97-9.204h-4.655l-2.109 8.97c-.6 2.731-1.151 4.929-1.508 7.248h-.065c-.365-2.19-.851-4.953-1.37-7.596 0 0-1.25-6.416-1.687-8.63zm35.537 15.28c0 .292-.025.59-.106.85-.332 1.09-1.46 2.003-2.87 2.003-1.177 0-2.117-.67-2.117-2.076 0-2.158 2.384-2.756 5.093-2.74zm4.257-3.757c0-3.555-1.524-6.683-6.674-6.683-2.644 0-4.744.744-5.888 1.398l.836 2.86c1.046-.662 2.716-1.203 4.298-1.203 2.62-.008 3.04 1.479 3.04 2.424v.226c-5.7-.008-9.3 1.956-9.3 5.964 0 2.448 1.832 4.735 5.019 4.735 1.963 0 3.6-.775 4.582-2.028h.097s.65 2.715 4.242 1.673c-.187-1.131-.252-2.335-.252-3.782zm7.096 4.93V8.055h-4.257v20.889h4.257zm55.706-16.453v15.41c0 2.125.405 3.612 1.257 4.525.754.8 1.987 1.31 3.463 1.31 1.257 0 2.497-.243 3.081-.453l-.057-3.313a6.5 6.5 0 0 1-1.613.194c-1.452 0-1.939-.93-1.939-2.837v-5.899h3.707v-4h-3.707V8.055zm-10.997 5.196v15.693h4.395v-8.032c0-.437.025-.817.098-1.156.324-1.68 1.614-2.756 3.47-2.756.512 0 .877.057 1.266.113V13.01a4.4 4.4 0 0 0-.965-.098c-1.638 0-3.504 1.051-4.29 3.314h-.122v-2.958H91.6m-41.732-.016v15.693h4.281V19.74c0-.428.05-.89.203-1.285.357-.93 1.217-2.012 2.603-2.012 1.728 0 2.539 1.454 2.539 3.555v8.946h4.273v-9.317c0-.412.057-.905.179-1.269.349-1.05 1.281-1.915 2.57-1.915 1.752 0 2.588 1.43 2.588 3.903v8.598h4.282v-9.245c0-4.872-2.482-6.804-5.288-6.804-1.24 0-2.222.307-3.106.849-.746.46-1.411 1.107-1.995 1.955h-.065c-.673-1.688-2.27-2.804-4.338-2.804-2.66 0-3.86 1.342-4.59 2.49h-.074V13.25z"/></g><defs><clipPath id="a"><path fill="#fff" d="M0 .5h152v36H0z"/></clipPath></defs></svg>
